images/tractor.svg

<svg width="166" height="136" viewBox="0 0 166 136" fill="none" xmlns="http://www.w3.org/2000/svg">
<path d="M39.3862 58.1445C18.0144 58.1445 0.626953 75.5199 0.626953 96.8769C0.626953 118.234 18.0144 135.609 39.3862 135.609C60.7581 135.609 78.1455 118.234 78.1455 96.8769C78.1455 75.5199 60.7581 58.1445 39.3862 58.1445ZM39.3862 125.926C23.3576 125.926 10.3168 112.894 10.3168 96.8769C10.3168 80.8595 23.3576 67.8276 39.3862 67.8276C55.4148 67.8276 68.4557 80.8595 68.4557 96.8769C68.4557 112.894 55.4148 125.926 39.3862 125.926Z" fill="white" fill-opacity="0.32"/>
<path d="M39.3863 82.3516C31.372 82.3516 24.8516 88.8675 24.8516 96.8762C24.8516 104.885 31.372 111.401 39.3863 111.401C47.4006 111.401 53.921 104.885 53.921 96.8762C53.921 88.8675 47.4006 82.3516 39.3863 82.3516ZM39.3863 101.718C36.7153 101.718 34.5414 99.5454 34.5414 96.8762C34.5414 94.2071 36.7153 92.0347 39.3863 92.0347C42.0573 92.0347 44.2312 94.2071 44.2312 96.8762C44.2312 99.5454 42.0573 101.718 39.3863 101.718Z" fill="white" fill-opacity="0.32"/>
<path d="M156.311 84.9291L156.311 67.8286C156.311 57.1494 147.618 48.4624 136.931 48.4624L127.241 48.4624L127.241 24.2546C127.241 21.5855 129.415 19.4131 132.086 19.4131L132.086 9.72998C124.072 9.72998 117.551 16.2459 117.551 24.2546L117.551 48.4624L96.2855 48.4624L84.6578 9.72998L92.6809 9.72998L92.6809 0.046875L15.1624 0.046875L15.1624 9.72998L24.8522 9.72998L24.8522 40.6314C16.665 42.7471 8.96996 46.6279 2.3877 52.0608L8.55738 59.5273C17.2038 52.3924 28.1528 48.4624 39.3869 48.4624C66.102 48.4624 87.836 70.1813 87.836 96.8779L87.836 111.403L108.268 111.403C110.582 125.124 122.553 135.61 136.931 135.61C152.96 135.61 166 122.578 166 106.561C166 97.9773 162.255 90.2523 156.311 84.9291ZM34.542 38.9848L34.542 9.72998L74.5415 9.72998L86.1693 48.4624L71.4869 48.4624C62.2816 42.3474 51.2443 38.7793 39.3869 38.7793C37.7656 38.7793 36.1494 38.8499 34.542 38.9848ZM82.6807 58.1455L136.931 58.1455C142.274 58.1455 146.621 62.489 146.621 67.8286L146.621 79.1735C143.589 78.0992 140.328 77.5117 136.931 77.5117L94.2 77.5117C91.64 70.2985 87.6947 63.736 82.6807 58.1455ZM96.7133 87.1948L115.284 87.1948C111.695 91.1966 109.199 96.1958 108.268 101.719L97.5258 101.719L97.5258 96.8779C97.5258 93.5796 97.2457 90.3456 96.7133 87.1948ZM136.931 125.927C126.244 125.927 117.551 117.24 117.551 106.561C117.551 95.8818 126.244 87.1948 136.931 87.1948C147.618 87.1948 156.311 95.8818 156.311 106.561C156.311 117.24 147.618 125.927 136.931 125.927Z" fill="white" fill-opacity="0.32"/>
<path d="M141.775 106.56C141.775 109.235 139.606 111.402 136.93 111.402C134.254 111.402 132.085 109.235 132.085 106.56C132.085 103.886 134.254 101.719 136.93 101.719C139.606 101.719 141.775 103.886 141.775 106.56Z" fill="white" fill-opacity="0.32"/>
</svg>

<svg xmlns="http://www.w3.org/2000/svg" width="166" height="136" fill="none"><path fill="#fff" fill-opacity=".32" d="M39.386 58.145C18.014 58.145.627 75.52.627 96.877s17.387 38.732 38.76 38.732c21.371 0 38.759-17.375 38.759-38.732s-17.388-38.732-38.76-38.732m0 67.781c-16.028 0-29.07-13.032-29.07-29.05 0-16.017 13.042-29.048 29.07-29.048 16.029 0 29.07 13.031 29.07 29.049 0 16.017-13.041 29.049-29.07 29.049"/><path fill="#fff" fill-opacity=".32" d="M39.386 82.352c-8.014 0-14.534 6.516-14.534 14.524 0 8.009 6.52 14.525 14.534 14.525s14.535-6.516 14.535-14.525c0-8.008-6.52-14.524-14.535-14.524m0 19.366a4.85 4.85 0 0 1-4.845-4.842 4.85 4.85 0 0 1 4.845-4.841 4.85 4.85 0 0 1 4.845 4.841 4.85 4.85 0 0 1-4.845 4.842"/><path fill="#fff" fill-opacity=".32" d="M156.311 84.93V67.828c0-10.68-8.693-19.367-19.38-19.367h-9.69V24.255a4.85 4.85 0 0 1 4.845-4.842V9.73c-8.014 0-14.535 6.516-14.535 14.525v24.207H96.285L84.659 9.73h8.023V.047H15.162V9.73h9.69v30.901a58.2 58.2 0 0 0-22.464 11.43l6.17 7.466c8.646-7.135 19.595-11.065 30.829-11.065 26.715 0 48.449 21.72 48.449 48.416v14.525h20.432c2.314 13.721 14.285 24.207 28.663 24.207 16.029 0 29.069-13.032 29.069-29.049 0-8.584-3.745-16.309-9.689-21.632M34.542 38.984V9.73h40l11.627 38.732H71.487a57.83 57.83 0 0 0-32.1-9.683q-2.433.001-4.845.206m48.139 19.16h54.25c5.343 0 9.69 4.344 9.69 9.684v11.345a29 29 0 0 0-9.69-1.662H94.2a58.1 58.1 0 0 0-11.52-19.367m14.032 29.05h18.571a28.96 28.96 0 0 0-7.016 14.524H97.526v-4.841c0-3.298-.28-6.532-.813-9.683m40.218 38.732c-10.687 0-19.38-8.687-19.38-19.366s8.693-19.366 19.38-19.366 19.38 8.687 19.38 19.366-8.693 19.366-19.38 19.366"/><path fill="#fff" fill-opacity=".32" d="M141.775 106.56a4.843 4.843 0 0 1-4.845 4.842 4.843 4.843 0 1 1 0-9.683 4.843 4.843 0 0 1 4.845 4.841"/></svg>
